SVG_Azure_Grouped/Identity/Continuous Access Evaluation.svg

<?xml version="1.0" encoding="UTF-8" standalone="no"?>
<!-- Generated by Microsoft Visio, SVG Export Continuous Access Evaluation.svg Page-1 -->

<svg
   xmlns:dc="http://purl.org/dc/elements/1.1/"
   xmlns:cc="http://creativecommons.org/ns#"
   xmlns:rdf="http://www.w3.org/1999/02/22-rdf-syntax-ns#"
   xmlns:svg="http://www.w3.org/2000/svg"
   xmlns="http://www.w3.org/2000/svg"
   xmlns:sodipodi="http://sodipodi.sourceforge.net/DTD/sodipodi-0.dtd"
   xmlns:inkscape="http://www.inkscape.org/namespaces/inkscape"
   width="0.80378222in"
   height="0.81709307in"
   viewBox="0 0 57.872524 58.83061"
   xml:space="preserve"
   class="st6"
   version="1.1"
   id="svg55"
   sodipodi:docname="Continuous Access Evaluation.svg"
   style="font-size:12px;overflow:visible;color-interpolation-filters:sRGB;fill:none;fill-rule:evenodd;stroke-linecap:square;stroke-miterlimit:3"
   inkscape:version="0.92.5 (2060ec1f9f, 2020-04-08)"><metadata
   id="metadata59"><rdf:RDF><cc:Work
       rdf:about=""><dc:format>image/svg+xml</dc:format><dc:type
         rdf:resource="http://purl.org/dc/dcmitype/StillImage" /></cc:Work></rdf:RDF></metadata><sodipodi:namedview
   pagecolor="#ffffff"
   bordercolor="#666666"
   borderopacity="1"
   objecttolerance="10"
   gridtolerance="10"
   guidetolerance="10"
   inkscape:pageopacity="0"
   inkscape:pageshadow="2"
   inkscape:window-width="640"
   inkscape:window-height="480"
   id="namedview57"
   showgrid="false"
   inkscape:zoom="1.4012788"
   inkscape:cx="38.578136"
   inkscape:cy="38.850266"
   inkscape:window-x="0"
   inkscape:window-y="0"
   inkscape:window-maximized="0"
   inkscape:current-layer="svg55" />
	<style
   type="text/css"
   id="style2">
	<![CDATA[
		.st1 {fill:url(#grad0-6);stroke:none;stroke-linecap:butt;stroke-width:33.4603}
		.st2 {fill:#50e6ff;stroke:none;stroke-linecap:butt;stroke-width:33.4603}
		.st3 {fill:#ffffff;fill-opacity:0.2;stroke:none;stroke-linecap:butt;stroke-width:33.4603}
		.st4 {fill:url(#grad0-14);stroke:none;stroke-linecap:butt;stroke-width:33.4603}
		.st5 {fill:url(#grad0-18);stroke:none;stroke-linecap:butt;stroke-width:33.4603}
		.st6 {fill:none;fill-rule:evenodd;font-size:12px;overflow:visible;stroke-linecap:square;stroke-miterlimit:3}
	]]>
	</style>

	<defs
   id="Patterns_And_Gradients">
		<linearGradient
   id="grad0-6"
   x1="0"
   y1="69.594488"
   x2="39.076909"
   y2="69.594488"
   gradientTransform="scale(0.86035465,1.1623114)"
   gradientUnits="userSpaceOnUse">
			<stop
   offset="0.225"
   stop-color="#32d4f5"
   stop-opacity="1"
   id="stop4" />
			<stop
   offset="1"
   stop-color="#198ab3"
   stop-opacity="1"
   id="stop6" />
		</linearGradient>
		<linearGradient
   id="grad0-14"
   x1="0"
   y1="139.5125"
   x2="29.109017"
   y2="139.5125"
   gradientTransform="scale(1.3349815,0.74907404)"
   gradientUnits="userSpaceOnUse">
			<stop
   offset="0"
   stop-color="#773adc"
   stop-opacity="1"
   id="stop9" />
			<stop
   offset="1"
   stop-color="#552f99"
   stop-opacity="1"
   id="stop11" />
		</linearGradient>
		<linearGradient
   id="grad0-18"
   x1="-1.1554758"
   y1="71.597002"
   x2="55.73589"
   y2="71.597002"
   gradientTransform="scale(1.0172462,0.98304618)"
   gradientUnits="userSpaceOnUse">
			<stop
   offset="0.3"
   stop-color="#773adc"
   stop-opacity="1"
   id="stop14" />
			<stop
   offset="1"
   stop-color="#a67af4"
   stop-opacity="1"
   id="stop16" />
		</linearGradient>
	</defs>
	<g
   id="g53"
   transform="translate(-33.462797,-33.463716)">
		<title
   id="title20">Page-1</title>
		<g
   id="group13422-1"
   transform="translate(34.6382,-34.0157)">
			<title
   id="title22">Continuous Access Evaluation.13422</title>
			<g
   id="group13423-2">
				<title
   id="title24">g12-3</title>
				<g
   id="shape13424-3"
   transform="translate(23.0146)">
					<title
   id="title26">path2</title>
					<path
   d="M 31.89,102.78 H 29.5 V 95.01 A 14.5066,14.7477 -180 0 0 25.8,85.1 12.2464,12.4499 -180 0 0 7.44,85.1 14.2494,14.4862 -180 0 0 3.73,95 v 7.77 H 1.72 A 1.74581,1.77482 -180 0 0 0,104.51 v 20.06 a 1.74902,1.77809 -180 0 0 1.72,1.74 h 30.17 a 1.74902,1.77809 -180 0 0 1.73,-1.74 v -20.06 a 1.74581,1.77482 -180 0 0 -1.73,-1.73 z m -8.36,0 H 9.71 v -7.9 a 7.8706,8.0014 0 0 1 2.15,-5.43 6.17302,6.27561 0 0 1 9.37,0 7.62947,7.75626 0 0 1 0.81,1.09 7.39476,7.51765 0 0 1 1.49,4.33 z"
   class="st1"
   id="path28"
   inkscape:connector-curvature="0"
   style="fill:url(#grad0-6);stroke:none;stroke-width:33.46030045;stroke-linecap:butt" />
				</g>
				<g
   id="shape13425-7"
   transform="translate(23.6608,-0.287632)">
					<title
   id="title31">path4</title>
					<path
   d="M 31.31,103.07 H 1.11 A 1.70723,1.7356 -180 0 0 0,103.5 l 32.41,22.81 a 1.71366,1.74213 -180 0 0 0.62,-1.3 v -20.2 a 1.74902,1.77809 -180 0 0 -1.72,-1.74 z"
   class="st2"
   id="path33"
   inkscape:connector-curvature="0"
   style="fill:#50e6ff;stroke:none;stroke-width:33.46030045;stroke-linecap:butt" />
				</g>
				<g
   id="shape13426-9"
   transform="translate(23.0757,-0.297438)">
					<title
   id="title36">path6</title>
					<path
   d="m 1.72,103.08 h 30.2 a 1.70723,1.7356 0 0 1 1.11,0.43 L 0.62,126.31 A 1.71366,1.74213 0 0 1 0,125.01 v -20.19 a 1.74902,1.77809 0 0 1 1.72,-1.74 z"
   class="st3"
   id="path38"
   inkscape:connector-curvature="0"
   style="fill:#ffffff;fill-opacity:0.2;stroke:none;stroke-width:33.46030045;stroke-linecap:butt" />
				</g>
				<g
   id="shape13427-11"
   transform="translate(16.7612,-37.0261)">
					<title
   id="title41">path8</title>
					<path
   d="m 21.25,116.23 a 13.5421,13.7671 0 0 1 1.4,-0.16 h 0.33 a 13.6224,13.8488 0 0 1 10.34,4.82 16.172,16.4408 0 0 1 3.17,5.42 l 2.37,-0.39 A 28.936,29.4169 -180 0 0 0,106.72 l 1.24,9.17 a 20.0012,20.3336 0 0 1 20.01,0.33 z"
   class="st4"
   id="path43"
   inkscape:connector-curvature="0"
   style="fill:url(#grad0-14);stroke:none;stroke-width:33.46030045;stroke-linecap:butt" />
				</g>
				<g
   id="shape13428-15"
   transform="translate(0,-0.777914)">
					<title
   id="title46">path10</title>
					<path
   d="m 52.7,88.82 2.39,-0.83 a 28.0905,28.5573 0 0 1 1.25,14.06 2.9772,3.02667 -180 0 0 -0.39,-0.15 3.66202,3.72287 -180 0 0 -0.64,-0.14 l -0.09,-0.03 H 54.25 V 95.8 A 16.1977,16.4669 -180 0 0 52.7,88.82 Z m -31.58,36.53 v -8.26 A 20.2166,20.5526 0 0 1 11.75,85.06 c 0,0 1.42,-2.02 2.07,-2.77 a 0.524064,0.532773 0 0 1 0.507988,0.04903 L 14.65,82.57 l 4.63,3.37 a 0.527279,0.536041 -180 0 0 0.826284,-0.522967 L 17.82,71.38 A 1.17995,1.19956 -180 0 0 16.46,70.4 L 2.65,72.72 A 0.527279,0.536041 -180 0 0 2.431372,73.684221 L 7.07,77.06 h 0.02 a 28.9167,29.3973 -180 0 0 14.27,49.25 3.53663,3.5954 0 0 1 -0.24,-0.96 z"
   class="st5"
   id="path48"
   inkscape:connector-curvature="0"
   style="fill:url(#grad0-18);stroke:none;stroke-width:33.46030045;stroke-linecap:butt" />
				</g>
			</g>
		</g>
	</g>
</svg>

<?xml version="1.0" encoding="UTF-8" standalone="no"?>
<!DOCTYPE svg PUBLIC "-//W3C//DTD SVG 1.1//EN" "http://www.w3.org/Graphics/SVG/1.1/DTD/svg11.dtd">
<!-- Generated by Microsoft Visio, SVG Export Continuous Access Evaluation.svg Page-1 -->
<svg xmlns="http://www.w3.org/2000/svg" xmlns:xlink="http://www.w3.org/1999/xlink" xmlns:ev="http://www.w3.org/2001/xml-events"
		width="1.73323in" height="1.75435in" viewBox="0 0 124.793 126.313" xml:space="preserve" color-interpolation-filters="sRGB"
		class="st6">
	<style type="text/css">
	<![CDATA[
		.st1 {fill:url(#grad0-6);stroke:none;stroke-linecap:butt;stroke-width:33.4603}
		.st2 {fill:#50e6ff;stroke:none;stroke-linecap:butt;stroke-width:33.4603}
		.st3 {fill:#ffffff;fill-opacity:0.2;stroke:none;stroke-linecap:butt;stroke-width:33.4603}
		.st4 {fill:url(#grad0-14);stroke:none;stroke-linecap:butt;stroke-width:33.4603}
		.st5 {fill:url(#grad0-18);stroke:none;stroke-linecap:butt;stroke-width:33.4603}
		.st6 {fill:none;fill-rule:evenodd;font-size:12px;overflow:visible;stroke-linecap:square;stroke-miterlimit:3}
	]]>
	</style>

	<defs id="Patterns_And_Gradients">
		<linearGradient id="grad0-6" x1="0" y1="0" x2="1" y2="0" gradientTransform="rotate(88.555219365071 0.5 0.5)">
			<stop offset="0.225" stop-color="#32d4f5" stop-opacity="1"/>
			<stop offset="1" stop-color="#198ab3" stop-opacity="1"/>
		</linearGradient>
		<linearGradient id="grad0-14" x1="0" y1="0" x2="1" y2="0" gradientTransform="rotate(-94.995328561944 0.5 0.5)">
			<stop offset="0" stop-color="#773adc" stop-opacity="1"/>
			<stop offset="1" stop-color="#552f99" stop-opacity="1"/>
		</linearGradient>
		<linearGradient id="grad0-18" x1="0" y1="0" x2="1" y2="0" gradientTransform="rotate(-149.291224199 0.5 0.5)">
			<stop offset="0.3" stop-color="#773adc" stop-opacity="1"/>
			<stop offset="1" stop-color="#a67af4" stop-opacity="1"/>
		</linearGradient>
	</defs>
	<g>
		<title>Page-1</title>
		<g id="group13120-1" transform="translate(34.6382,-34.0157)">
			<title>Continuous Access Evaluation.13120</title>
			<g id="group13121-2">
				<title>g12-3</title>
				<g id="shape13122-3" transform="translate(23.0146,0)">
					<title>path2</title>
					<path d="M31.89 102.78 L29.5 102.78 L29.5 95.01 A14.5066 14.7477 -180 0 0 25.8 85.1 A12.2464 12.4499 -180 0 0
								 7.44 85.1 A14.2494 14.4862 -180 0 0 3.73 95 L3.73 102.77 L1.72 102.77 A1.74581 1.77482 -180 0 0
								 -0 104.51 L0 124.57 A1.74902 1.77809 -180 0 0 1.72 126.31 L31.89 126.31 A1.74902 1.77809 -180 0
								 0 33.62 124.57 L33.62 104.51 A1.74581 1.77482 -180 0 0 31.89 102.78 ZM23.53 102.78 L9.71 102.78
								 L9.71 94.88 A7.8706 8.0014 0 0 1 11.86 89.45 A6.17302 6.27561 0 0 1 21.23 89.45 A7.62947 7.75626
								 0 0 1 22.04 90.54 A7.39476 7.51765 0 0 1 23.53 94.87 L23.53 102.78 Z" class="st1"/>
				</g>
				<g id="shape13123-7" transform="translate(23.6608,-0.287632)">
					<title>path4</title>
					<path d="M31.31 103.07 L1.11 103.07 A1.70723 1.7356 -180 0 0 0 103.5 L32.41 126.31 A1.71366 1.74213 -180 0 0
								 33.03 125.01 L33.03 104.81 A1.74902 1.77809 -180 0 0 31.31 103.07 Z" class="st2"/>
				</g>
				<g id="shape13124-9" transform="translate(23.0757,-0.297438)">
					<title>path6</title>
					<path d="M1.72 103.08 L31.92 103.08 A1.70723 1.7356 0 0 1 33.03 103.51 L0.62 126.31 A1.71366 1.74213 0 0 1 0
								 125.01 L0 104.82 A1.74902 1.77809 0 0 1 1.72 103.08 Z" class="st3"/>
				</g>
				<g id="shape13125-11" transform="translate(16.7612,-37.0261)">
					<title>path8</title>
					<path d="M21.25 116.23 A13.5421 13.7671 0 0 1 22.65 116.07 L22.98 116.07 A13.6224 13.8488 0 0 1 33.32 120.89
								 A16.172 16.4408 0 0 1 36.49 126.31 L38.86 125.92 A28.936 29.4169 -180 0 0 0 106.72 L1.24 115.89
								 A20.0012 20.3336 0 0 1 21.25 116.22 L21.25 116.23 Z" class="st4"/>
				</g>
				<g id="shape13126-15" transform="translate(0,-0.777914)">
					<title>path10</title>
					<path d="M52.7 88.82 L55.09 87.99 A28.0905 28.5573 0 0 1 56.34 102.05 A2.9772 3.02667 -180 0 0 55.95 101.9 A3.66202
								 3.72287 -180 0 0 55.31 101.76 L55.22 101.73 L54.25 101.73 L54.25 95.8 A16.1977 16.4669 -180 0 0
								 52.7 88.82 ZM21.12 125.35 L21.12 117.09 A20.2166 20.5526 0 0 1 11.75 85.06 C11.75 85.06 13.17 83.04
								 13.82 82.29 a0.524064 0.532773 0 0 1 0.507988 0.0490282 L14.65 82.57 L19.28 85.94 a0.527279 0.536041
								 -180 0 0 0.826284 -0.522967 L17.82 71.38 A1.17995 1.19956 -180 0 0 16.46 70.4 L2.65 72.72 a0.527279
								 0.536041 -180 0 0 -0.218628 0.964221 L7.07 77.06 L7.09 77.06 A28.9167 29.3973 -180 0 0 21.36 126.31
								 A3.53663 3.5954 0 0 1 21.12 125.35 Z" class="st5"/>
				</g>
			</g>
		</g>
	</g>
</svg>
